img/bookmark-empty.svg

<svg fill="none" height="24" viewBox="0 0 24 24" width="24" xmlns="http://www.w3.org/2000/svg"><path clip-rule="evenodd" d="m4 5c0-.79565.31607-1.55871.87868-2.12132s1.32567-.87868 2.12132-.87868h10c.7956 0 1.5587.31607 2.1213.87868s.8787 1.32567.8787 2.12132v16.028c0 1.22-1.38 1.93-2.372 1.221l-5.628-4.02-5.628 4.02c-.993.71-2.372 0-2.372-1.22zm3-1c-.26522 0-.51957.10536-.70711.29289-.18753.18754-.29289.44189-.29289.70711v15.057l5.128-3.663c.2544-.1818.5593-.2795.872-.2795s.6176.0977.872.2795l5.128 3.663v-15.057c0-.26522-.1054-.51957-.2929-.70711-.1875-.18753-.4419-.29289-.7071-.29289z" fill="#1c8aa9" fill-rule="evenodd"/></svg>

<svg width="24" height="24" viewBox="0 0 24 24" fill="none" xmlns="http://www.w3.org/2000/svg">
<path fill-rule="evenodd" clip-rule="evenodd" d="M4 5C4 4.20435 4.31607 3.44129 4.87868 2.87868C5.44129 2.31607 6.20435 2 7 2H17C17.7956 2 18.5587 2.31607 19.1213 2.87868C19.6839 3.44129 20 4.20435 20 5V21.028C20 22.248 18.62 22.958 17.628 22.249L12 18.229L6.372 22.249C5.379 22.959 4 22.249 4 21.029V5ZM7 4C6.73478 4 6.48043 4.10536 6.29289 4.29289C6.10536 4.48043 6 4.73478 6 5V20.057L11.128 16.394C11.3824 16.2122 11.6873 16.1145 12 16.1145C12.3127 16.1145 12.6176 16.2122 12.872 16.394L18 20.057V5C18 4.73478 17.8946 4.48043 17.7071 4.29289C17.5196 4.10536 17.2652 4 17 4H7Z" fill="#1C8AA9"/>
</svg>
